X:1
T: Chigwell Row
N:13 April 1997
C: Trad. - adapted
S:
A:
O:
R:
M:4/4
K:G
I:speed 240
%W:         A
% voice 1 (1 lines, 15 notes)
K:G
M:4/4
L:1/16
G6 G2 G4 G4 |G4 B4 d4 B4 |A6 A2 A4 G4 |F4 A4 d8 |
%W:
% voice 1 (1 lines, 15 notes)
G6 G2 G4 G4 |G4 B4 d4 B4 |e6 e2 d4 c4 |B4 A4 G8 |
%W:
% voice 1 (1 lines, 15 notes)
G6 G2 G4 G4 |G4 B4 d4 B4 |A6 A2 A4 G4 |F4 A4 d8 |
%W:
% voice 1 (1 lines, 15 notes)
G6 G2 G4 G4 |G4 B4 d4 B4 |e6 e2 d4 c4 |B4 A4 G8 |
%W:         B
% voice 1 (1 lines, 15 notes)
g6 g2 g4 g4 |a4 g4 f4 d4 |e6 e2 e4 e4 |d4 B4 A8 |
%W:
% voice 1 (1 lines, 15 notes)
B6 B2 B4 c4 |d6 d2 d4 e4 |d4 B4 G4 B4 |A4 A4 G8 |
%W:         C
% voice 1 (1 lines, 15 notes)
g6 g2 g4 g4 |a4 g4 f4 d4 |e6 e2 e4 e4 |d4 B4 A8 |
%W:
% voice 1 (1 lines, 15 notes)
G6 A2 B4 d4 |e6 f2 g4 a4 |b6 a2 g4 e4 |d4 f4 g8 |
